X: 448
%
U:~=!turn!
T: Mr. Joseph Bank
C:Arranged by Mr. W. Martin
O:Scotland
B:Keith Norman MacDonald : "The Skye collection of the best reels & strathspeys extant" : 1887
Z:Ralph Palmer
R:Reel
M:C
L:1/8
K:A
F | ~EDCD E<A,A,>A | GBAc B<EE>d | (cB/2A/2) e>A f>Ag>A | (a/2g/2f/2e/2) a>e c<A A::
a | (a/2g/2f/2e/2) ce Ae ce | (a/2g/2f/2e/2) df Bf df | (a/2g/2f/2e/2) ce Ae ce | a2 ec cA A:|
W:I am indebted to Mr. William Marting for this excellent old tune which is now
W:published for the first time so far as known.


